svg/logo/airdrop_line.svg

<?xml version="1.0" encoding="UTF-8"?>
<svg width="24px" height="24px" viewBox="0 0 24 24" version="1.1" xmlns="http://www.w3.org/2000/svg" xmlns:xlink="http://www.w3.org/1999/xlink">
    <title>airdrop_line</title>
    <g id="Icon" stroke="none" stroke-width="1" fill="none" fill-rule="evenodd">
        <g id="Logo" transform="translate(-624.000000, -192.000000)">
            <g id="airdrop_line" transform="translate(624.000000, 192.000000)">
                <path d="M24,0 L24,24 L0,24 L0,0 L24,0 Z M12.5935,23.2578 L12.5819,23.2595 L12.5109,23.295 L12.4919,23.2987 L12.4767,23.295 L12.4057,23.2595 C12.3958,23.2564 12.387,23.259 12.3821,23.2649 L12.378,23.2758 L12.3609,23.7031 L12.3659,23.7235 L12.3769,23.7357 L12.4805,23.8097 L12.4953,23.8136 L12.5071,23.8097 L12.6107,23.7357 L12.6233,23.7197 L12.6267,23.7031 L12.6096,23.2758 C12.6076,23.2657 12.601,23.2593 12.5935,23.2578 Z M12.8584,23.1453 L12.8445,23.1473 L12.6598,23.2397 L12.6499,23.2499 L12.6472,23.2611 L12.6651,23.6906 L12.6699,23.7034 L12.6784,23.7105 L12.8793,23.8032 C12.8914,23.8069 12.9022,23.803 12.9078,23.7952 L12.9118,23.7812 L12.8777,23.1665 C12.8753,23.1546 12.8674,23.147 12.8584,23.1453 Z M12.143,23.1473 C12.1332,23.1424 12.1222,23.1453 12.1156,23.1526 L12.1099,23.1665 L12.0758,23.7812 C12.0751,23.7927 12.0828,23.8019 12.0926,23.8046 L12.1083,23.8032 L12.3092,23.7105 L12.3186,23.7024 L12.3225,23.6906 L12.3404,23.2611 L12.3372,23.2485 L12.3278,23.2397 L12.143,23.1473 Z" id="MingCute" fill-rule="nonzero"></path>
                <path d="M12,4 C7.58172,4 4,7.58172 4,12 C4,15.1305 5.79793,17.8429 8.42211,19.1575 C8.91589,19.4049 9.11565,20.0057 8.86828,20.4995 C8.6209,20.9933 8.02007,21.1931 7.52629,20.9457 C4.25156,19.3051 2,15.9164 2,12 C2,6.47715 6.47715,2 12,2 C17.5228,2 22,6.47715 22,12 C22,15.9164 19.7484,19.3051 16.4737,20.9457 C15.9799,21.1931 15.3791,20.9933 15.1317,20.4995 C14.8843,20.0057 15.0841,19.4049 15.5779,19.1575 C18.2021,17.8429 20,15.1305 20,12 C20,7.58172 16.4183,4 12,4 Z M12,8 C9.79086,8 8,9.79086 8,12 C8,13.5645 8.89805,14.9211 10.2114,15.579 C10.7051,15.8264 10.9049,16.4272 10.6575,16.921 C10.4101,17.4148 9.80932,17.6146 9.31553,17.3672 C7.35167,16.3833 6,14.3504 6,12 C6,8.68629 8.68629,6 12,6 C15.3137,6 18,8.68629 18,12 C18,14.3504 16.6483,16.3833 14.6845,17.3672 C14.1907,17.6146 13.5899,17.4148 13.3425,16.921 C13.0951,16.4272 13.2949,15.8264 13.7886,15.579 C15.102,14.9211 16,13.5645 16,12 C16,9.79086 14.2091,8 12,8 Z M10,12 C10,10.8954 10.8954,10 12,10 C13.1046,10 14,10.8954 14,12 C14,12.7844 13.5482,13.4616 12.8952,13.7887 C12.6247,13.9242 12.3198,14 12,14 C11.6802,14 11.3753,13.9242 11.1048,13.7887 C10.4518,13.4616 10,12.7844 10,12 Z" id="形状" fill="#09244B"></path>
            </g>
        </g>
    </g>
</svg>

<svg xmlns="http://www.w3.org/2000/svg" width="24" height="24"><g fill="none" fill-rule="evenodd"><path d="M24 0v24H0V0h24ZM12.594 23.258l-.012.002-.071.035-.02.004-.014-.004-.071-.036c-.01-.003-.019 0-.024.006l-.004.01-.017.428.005.02.01.013.104.074.015.004.012-.004.104-.074.012-.016.004-.017-.017-.427c-.002-.01-.009-.017-.016-.018Zm.264-.113-.014.002-.184.093-.01.01-.003.011.018.43.005.012.008.008.201.092c.012.004.023 0 .029-.008l.004-.014-.034-.614c-.003-.012-.01-.02-.02-.022Zm-.715.002a.023.023 0 0 0-.027.006l-.006.014-.034.614c0 .012.007.02.017.024l.015-.002.201-.093.01-.008.003-.011.018-.43-.003-.012-.01-.01-.184-.092Z"/><path fill="#09244B" d="M12 4a8 8 0 0 0-3.578 15.157 1 1 0 0 1-.896 1.789A10 10 0 0 1 2 12C2 6.477 6.477 2 12 2s10 4.477 10 10a10 10 0 0 1-5.526 8.946 1 1 0 1 1-.896-1.789A8 8 0 0 0 12 4Zm0 4a4 4 0 0 0-1.789 7.579 1 1 0 0 1-.895 1.788 6 6 0 1 1 5.369 0 1 1 0 0 1-.896-1.788A4 4 0 0 0 12 8Zm-2 4a2 2 0 1 1 4 0 2 2 0 0 1-4 0Z"/></g></svg>
